static/assets/img/icons/theme/tools/axe.svg

<svg height="24" viewBox="0 0 24 24" width="24" xmlns="http://www.w3.org/2000/svg"><g fill="none" fill-rule="evenodd"><path d="m0 0h24v24h-24z" opacity="0"/><g fill="#000"><path d="m15.2426407 15.8284271 6.363961-6.36396101 1.4142136 1.41421361-6.3639611 6.363961zm-13.43502886.7071068 9.89949496-9.89949493c.3905243-.39052429 1.0236893-.39052429 1.4142135 0l1.4142136 1.41421356c.3905243.39052429.3905243 1.02368927 0 1.41421356l-9.89949493 9.89949491c-.39052429.3905243-1.02368927.3905243-1.41421356 0l-1.41421357-1.4142135c-.39052429-.3905243-.39052429-1.0236893 0-1.4142136zm14.14213566-12.72792206 1.4142135 1.41421357c.3905243.39052429.3905243 1.02368927 0 1.41421356l-.7071068.70710678c-.3905242.39052429-1.0236892.39052429-1.4142135 0l-1.4142136-1.41421356c-.3905243-.39052429-.3905243-1.02368927 0-1.41421356l.7071068-.70710679c.3905243-.39052429 1.0236893-.39052429 1.4142136 0z" opacity=".3"/><path d="m19.3284271 3.55025253c-2.3333333 1.33333334-4 2-5 2s-3 0-5.99999998 0v4.99999997h5.99999998c1.3333334 0 3 .6666667 5 2z" transform="matrix(.70710678 .70710678 -.70710678 .70710678 9.742641 -7.42031)"/></g></g></svg>

<svg width="24px" height="24px" viewBox="0 0 24 24" version="1.1" xmlns="http://www.w3.org/2000/svg" xmlns:xlink="http://www.w3.org/1999/xlink">
    <title>Icon For Axe</title>
    <g stroke="none" stroke-width="1" fill="none" fill-rule="evenodd">
        <rect opacity="0" x="0" y="0" width="24" height="24"></rect>
        <path d="M15.2426407,15.8284271 L21.6066017,9.46446609 L23.0208153,10.8786797 L16.6568542,17.2426407 L15.2426407,15.8284271 Z M1.80761184,16.5355339 L11.7071068,6.63603897 C12.0976311,6.24551468 12.7307961,6.24551468 13.1213203,6.63603897 L14.5355339,8.05025253 C14.9260582,8.44077682 14.9260582,9.0739418 14.5355339,9.46446609 L4.63603897,19.363961 C4.24551468,19.7544853 3.6123497,19.7544853 3.22182541,19.363961 L1.80761184,17.9497475 C1.41708755,17.5592232 1.41708755,16.9260582 1.80761184,16.5355339 Z M15.9497475,3.80761184 L17.363961,5.22182541 C17.7544853,5.6123497 17.7544853,6.24551468 17.363961,6.63603897 L16.6568542,7.34314575 C16.26633,7.73367004 15.633165,7.73367004 15.2426407,7.34314575 L13.8284271,5.92893219 C13.4379028,5.5384079 13.4379028,4.90524292 13.8284271,4.51471863 L14.5355339,3.80761184 C14.9260582,3.41708755 15.5592232,3.41708755 15.9497475,3.80761184 Z" fill="#000000" opacity="0.3"></path>
        <path d="M19.3284271,3.55025253 C16.9950938,4.88358587 15.3284271,5.55025253 14.3284271,5.55025253 C13.3284271,5.55025253 11.3284271,5.55025253 8.32842712,5.55025253 L8.32842712,10.5502525 C10.9950938,10.5502525 12.9950938,10.5502525 14.3284271,10.5502525 C15.6617605,10.5502525 17.3284271,11.2169192 19.3284271,12.5502525 L19.3284271,3.55025253 Z" fill="#000000" transform="translate(13.828427, 8.050253) rotate(-675.000000) translate(-13.828427, -8.050253) "></path>
    </g>
</svg>
